packages/assets/application-icons/29.Chat.svg

<?xml version="1.0" encoding="UTF-8"?>
<svg width="24px" height="24px" viewBox="0 0 24 24" version="1.1" xmlns="http://www.w3.org/2000/svg" xmlns:xlink="http://www.w3.org/1999/xlink">
    <title>29.Chat</title>
    <g id="Page-1" stroke="none" stroke-width="1" fill="none" fill-rule="evenodd">
        <g id="Artboard" transform="translate(-201.000000, -237.000000)" fill="#000000" fill-rule="nonzero">
            <g id="29.Chat" transform="translate(201.000000, 237.000000)">
                <path d="M20.1818359,4 L3.81816406,4 C3.36621094,4 3,4.36621094 3,4.81816406 L3,16.2726562 C3,16.7246094 3.36621094,17.0908203 3.81816406,17.0908203 L5.45449218,17.0908203 L5.45449218,20.3636719 L8.72734374,17.0908203 L20.1818359,17.0908203 C20.6337891,17.0908203 21,16.7246094 21,16.2726563 L21,4.81816406 C21,4.36621094 20.6337891,4 20.1818359,4 Z M8.72734376,12.1818359 L5.45449218,12.1818359 L5.45449218,8.9091797 L8.72734376,8.9091797 L8.72734376,12.1818359 L8.72734376,12.1818359 Z M13.6363281,12.1818359 L10.3636719,12.1818359 L10.3636719,8.9091797 L13.6363281,8.9091797 L13.6363281,12.1818359 L13.6363281,12.1818359 Z M18.5455078,12.1818359 L15.2726563,12.1818359 L15.2726563,8.9091797 L18.5455078,8.9091797 L18.5455078,12.1818359 Z" id="Chat"></path>
            </g>
        </g>
    </g>
</svg>

<svg width="24" height="24" viewBox="0 0 24 24" xmlns="http://www.w3.org/2000/svg"><path d="M20.182 4H3.818A.818.818 0 0 0 3 4.818v11.455c0 .452.366.818.818.818h1.636v3.273l3.273-3.273h11.455a.818.818 0 0 0 .818-.818V4.818A.818.818 0 0 0 20.182 4ZM8.727 12.182H5.454V8.909h3.273v3.273Zm4.91 0h-3.273V8.909h3.272v3.273Zm4.909 0h-3.273V8.909h3.273v3.273Z" fill="#000" fill-rule="nonzero"/></svg>
